X:1
L:1/8
M:4/4
K:C
[M:2/2][K:C] e ga f a e a!p! (.Ped e)[Q:1/8=280] g2 ef g2 ef | gfga g2 c2 | g2 ef g2 fe | dcde d4 | 
 f2 fg a2 f2 | a2 gf e3 f | g2 g2 g2 fe | decd B2 G2 | c3 d d3 c/d/ | e3 f f3 e/f/ | g2 cd d3 c | 
 c8 :|[M:3/4] g2 | e2 c2 g2 | e2 c2 g2 | a2 e2 fe/f/ | gf ga gf | e2 c2 g2 | e2 c2 g2 | 
 a2 e2 fe/f/ | g4 :| d2 | e2 fedc | d2 G2 d2 | e2 fedc | d4 d2 | g2 f2 e2 | B3 c z2 | cB A3 G | 
 G4 g2 | e2 c2 g2 | e2 c2 g2 | a2 e2 fe/f/ | g4 g2 | ag fe dc | B2 G2 e2- | e2 d d2 c | c8 |]
